; G-Code generated by Simplify3D(R) Version 4.1.2
; Mar 22, 2022 at 3:40:13 PM
; Settings Summary
;   processName,Process1
;   applyToModels,test-disc
;   profileName,Syringe Tool Version 2 1001 TLL (modified)
;   profileVersion,2021-11-07 14:10:19
;   baseProfile,Prusa Research Original Prusa i3 MK3 (modified)
;   printMaterial,PLA
;   printQuality,Medium
;   printExtruders,
;   extruderName,Primary Extruder
;   extruderToolheadNumber,0
;   extruderDiameter,0.21
;   extruderAutoWidth,1
;   extruderWidth,0.25
;   extrusionMultiplier,1
;   extruderUseRetract,0
;   extruderRetractionDistance,1
;   extruderExtraRestartDistance,0
;   extruderRetractionZLift,0
;   extruderRetractionSpeed,2400
;   extruderUseCoasting,0
;   extruderCoastingDistance,0.2
;   extruderUseWipe,0
;   extruderWipeDistance,2
;   primaryExtruder,0
;   layerHeight,0.1
;   topSolidLayers,3
;   bottomSolidLayers,3
;   perimeterOutlines,3
;   printPerimetersInsideOut,1
;   startPointOption,2
;   startPointOriginX,0
;   startPointOriginY,0
;   sequentialIslands,0
;   spiralVaseMode,0
;   firstLayerHeightPercentage,100
;   firstLayerWidthPercentage,100
;   firstLayerUnderspeed,1
;   useRaft,0
;   raftExtruder,0
;   raftTopLayers,3
;   raftBaseLayers,2
;   raftOffset,3
;   raftSeparationDistance,0.14
;   raftTopInfill,100
;   aboveRaftSpeedMultiplier,0.3
;   useSkirt,1
;   skirtExtruder,999
;   skirtLayers,0
;   skirtOutlines,2
;   skirtOffset,1
;   usePrimePillar,0
;   primePillarExtruder,999
;   primePillarWidth,12
;   primePillarLocation,7
;   primePillarSpeedMultiplier,1
;   useOozeShield,0
;   oozeShieldExtruder,999
;   oozeShieldOffset,2
;   oozeShieldOutlines,1
;   oozeShieldSidewallShape,1
;   oozeShieldSidewallAngle,30
;   oozeShieldSpeedMultiplier,1
;   infillExtruder,0
;   internalInfillPattern,Rectilinear
;   externalInfillPattern,Rectilinear
;   infillPercentage,100
;   outlineOverlapPercentage,20
;   infillExtrusionWidthPercentage,100
;   minInfillLength,5
;   infillLayerInterval,1
;   internalInfillAngles,45,-45
;   overlapInternalInfillAngles,0
;   externalInfillAngles,45,-45
;   generateSupport,0
;   supportExtruder,0
;   supportInfillPercentage,30
;   supportExtraInflation,0
;   supportBaseLayers,0
;   denseSupportExtruder,0
;   denseSupportLayers,0
;   denseSupportInfillPercentage,70
;   supportLayerInterval,1
;   supportHorizontalPartOffset,0.3
;   supportUpperSeparationLayers,1
;   supportLowerSeparationLayers,1
;   supportType,0
;   supportGridSpacing,4
;   maxOverhangAngle,45
;   supportAngles,0
;   temperatureName,Primary Extruder,Heated Bed
;   temperatureNumber,0,1
;   temperatureSetpointCount,1,1
;   temperatureSetpointLayers,1,1
;   temperatureSetpointTemperatures,0,25
;   temperatureStabilizeAtStartup,1,1
;   temperatureHeatedBed,0,1
;   fanLayers,1
;   fanSpeeds,0
;   blipFanToFullPower,0
;   adjustSpeedForCooling,1
;   minSpeedLayerTime,15
;   minCoolingSpeedSlowdown,20
;   increaseFanForCooling,0
;   minFanLayerTime,45
;   maxCoolingFanSpeed,100
;   increaseFanForBridging,0
;   bridgingFanSpeed,100
;   use5D,1
;   relativeEdistances,1
;   allowEaxisZeroing,1
;   independentExtruderAxes,0
;   includeM10123,0
;   stickySupport,1
;   applyToolheadOffsets,0
;   gcodeXoffset,0
;   gcodeYoffset,0
;   gcodeZoffset,0
;   overrideMachineDefinition,1
;   machineTypeOverride,0
;   strokeXoverride,318
;   strokeYoverride,217
;   strokeZoverride,285
;   originOffsetXoverride,0
;   originOffsetYoverride,0
;   originOffsetZoverride,0
;   homeXdirOverride,-1
;   homeYdirOverride,-1
;   homeZdirOverride,-1
;   flipXoverride,1
;   flipYoverride,-1
;   flipZoverride,1
;   toolheadOffsets,0,0|0,0|0,0|0,0|0,0|0,0
;   overrideFirmwareConfiguration,1
;   firmwareTypeOverride,RepRap (Marlin/Repetier/Sprinter)
;   GPXconfigOverride,r2
;   baudRateOverride,115200
;   overridePrinterModels,1
;   printerModelsOverride
;   startingGcode,
;   layerChangeGcode,
;   retractionGcode,
;   toolChangeGcode,
;   endingGcode,G91,G1 Z100 F1000,G90,,T-1,,G28 X,G28 Y,,;G4 ; wait,;M106 S0 ; turn off cooling fan,;M104 S0 ; turn off extruder,;M140 S0 ; turn off bed,;G1 X0 Y200 ; part removal,;M84 ; disable motors
;   exportFileFormat,gcode
;   celebration,0
;   celebrationSong,Entertainer
;   postProcessing,
;   defaultSpeed,600
;   outlineUnderspeed,0.5
;   solidInfillUnderspeed,0.8
;   supportUnderspeed,0.8
;   rapidXYspeed,12000
;   rapidZspeed,1002
;   minBridgingArea,50
;   bridgingExtraInflation,0
;   bridgingExtrusionMultiplier,1
;   bridgingSpeedMultiplier,1
;   useFixedBridgingAngle,0
;   fixedBridgingAngle,0
;   applyBridgingToPerimeters,0
;   filamentDiameters,4.61|1.75|1.75|1.75|1.75|1.75
;   filamentPricesPerKg,46|46|46|46|46|46
;   filamentDensities,1|1.25|1.25|1.25|1.25|1.25
;   useMinPrintHeight,0
;   minPrintHeight,0
;   useMaxPrintHeight,0
;   maxPrintHeight,0
;   useDiaphragm,0
;   diaphragmLayerInterval,20
;   robustSlicing,1
;   mergeAllIntoSolid,0
;   onlyRetractWhenCrossingOutline,0
;   retractBetweenLayers,0
;   useRetractionMinTravel,0
;   retractionMinTravel,3
;   retractWhileWiping,0
;   onlyWipeOutlines,0
;   avoidCrossingOutline,0
;   maxMovementDetourFactor,3
;   toolChangeRetractionDistance,0
;   toolChangeExtraRestartDistance,-0.5
;   toolChangeRetractionSpeed,600
;   externalThinWallType,1
;   internalThinWallType,1
;   thinWallAllowedOverlapPercentage,25
;   singleExtrusionMinLength,1
;   singleExtrusionMinPrintingWidthPercentage,50
;   singleExtrusionMaxPrintingWidthPercentage,200
;   singleExtrusionEndpointExtension,0.2
;   horizontalSizeCompensation,0
G90
M83
M106 S0
M140 S25
M104 S0 T0
; process Process1
; layer 1, Z = 0.100
T0
; tool H0.100 W0.252
G1 X73.972 Y180.078 F12000
G1 Z0.100 F1002
G1 X74.391 Y179.944 E0.0007 F450
G1 X74.821 Y179.852 E0.0007
G1 X75.259 Y179.804 E0.0007
G1 X75.699 Y179.8 E0.0007
G1 X76.143 Y179.842 E0.0007
G1 X76.422 Y179.891 E0.0004
G1 X76.852 Y180.006 E0.0007
G1 X77.264 Y180.161 E0.0007
G1 X77.658 Y180.358 E0.0007
G1 X78.03 Y180.593 E0.0007
G1 X78.377 Y180.864 E0.0007
G1 X78.695 Y181.168 E0.0007
G1 X78.98 Y181.503 E0.0007
G1 X79.231 Y181.866 E0.0007
G1 X79.446 Y182.256 E0.0007
G1 X79.561 Y182.514 E0.0004
G1 X79.708 Y182.935 E0.0007
G1 X79.811 Y183.363 E0.0007
G1 X79.87 Y183.804 E0.0007
G1 X79.885 Y184.087 E0.0004
G1 X79.87 Y184.532 E0.0007
G1 X79.811 Y184.969 E0.0007
G1 X79.708 Y185.397 E0.0007
G1 X79.563 Y185.812 E0.0007
G1 X79.377 Y186.211 E0.0007
G1 X79.151 Y186.589 E0.0007
G1 X78.889 Y186.943 E0.0007
G1 X78.589 Y187.272 E0.0007
G1 X78.381 Y187.465 E0.0004
G1 X78.03 Y187.739 E0.0007
G1 X77.658 Y187.974 E0.0007
G1 X77.264 Y188.17 E0.0007
G1 X76.852 Y188.326 E0.0007
G1 X76.427 Y188.439 E0.0007
G1 X75.992 Y188.509 E0.0007
G1 X75.553 Y188.535 E0.0007
G1 X75.113 Y188.516 E0.0007
G1 X74.677 Y188.454 E0.0007
G1 X74.25 Y188.348 E0.0007
G1 X73.835 Y188.199 E0.0007
G1 X73.438 Y188.009 E0.0007
G1 X73.062 Y187.781 E0.0007
G1 X72.711 Y187.515 E0.0007
G1 X72.388 Y187.216 E0.0007
G1 X72.097 Y186.886 E0.0007
G1 X71.84 Y186.528 E0.0007
G1 X71.621 Y186.146 E0.0007
G1 X71.439 Y185.739 E0.0007
G1 X71.346 Y185.472 E0.0004
G1 X71.235 Y185.041 E0.0007
G1 X71.169 Y184.606 E0.0007
G1 X71.147 Y184.166 E0.0007
G1 X71.169 Y183.726 E0.0007
G1 X71.235 Y183.291 E0.0007
G1 X71.345 Y182.865 E0.0007
G1 X71.498 Y182.448 E0.0007
G1 X71.635 Y182.16 E0.0005
G1 X71.924 Y181.678 E0.0008
G1 X72.19 Y181.332 E0.0007
G1 X72.492 Y181.012 E0.0007
G1 X72.824 Y180.724 E0.0007
G1 X73.185 Y180.47 E0.0007
G1 X73.568 Y180.255 E0.0007
G1 X73.972 Y180.078 E0.0007
G1 X73.883 Y179.842 F12000
G1 X74.326 Y179.7 E0.0007 F450
G1 X74.781 Y179.603 E0.0007
G1 X75.244 Y179.552 E0.0007
G1 X75.71 Y179.548 E0.0007
G1 X76.177 Y179.592 E0.0007
G1 X76.476 Y179.645 E0.0005
G1 X76.929 Y179.766 E0.0007
G1 X77.365 Y179.93 E0.0007
G1 X77.782 Y180.138 E0.0007
G1 X78.175 Y180.386 E0.0007
G1 X78.542 Y180.673 E0.0007
G1 X78.878 Y180.995 E0.0007
G1 X79.18 Y181.35 E0.0007
G1 X79.445 Y181.733 E0.0007
G1 X79.672 Y182.143 E0.0007
G1 X79.796 Y182.421 E0.0005
G1 X79.95 Y182.864 E0.0007
G1 X80.059 Y183.317 E0.0007
G1 X80.121 Y183.781 E0.0007
G1 X80.137 Y184.085 E0.0005
G1 X80.121 Y184.554 E0.0007
G1 X80.059 Y185.015 E0.0007
G1 X79.95 Y185.468 E0.0007
G1 X79.797 Y185.907 E0.0007
G1 X79.6 Y186.329 E0.0007
G1 X79.361 Y186.729 E0.0007
G1 X79.084 Y187.103 E0.0007
G1 X78.768 Y187.45 E0.0007
G1 X78.545 Y187.657 E0.0005
G1 X78.175 Y187.945 E0.0007
G1 X77.782 Y188.194 E0.0007
G1 X77.365 Y188.401 E0.0007
G1 X76.929 Y188.566 E0.0007
G1 X76.479 Y188.686 E0.0007
G1 X76.019 Y188.76 E0.0007
G1 X75.555 Y188.787 E0.0007
G1 X75.089 Y188.768 E0.0007
G1 X74.628 Y188.701 E0.0007
G1 X74.177 Y188.589 E0.0007
G1 X73.738 Y188.432 E0.0007
G1 X73.318 Y188.231 E0.0007
G1 X72.92 Y187.989 E0.0007
G1 X72.549 Y187.709 E0.0007
G1 X72.207 Y187.392 E0.0007
G1 X71.899 Y187.043 E0.0007
G1 X71.628 Y186.664 E0.0007
G1 X71.396 Y186.26 E0.0007
G1 X71.205 Y185.832 E0.0007
G1 X71.105 Y185.545 E0.0005
G1 X70.988 Y185.091 E0.0007
G1 X70.918 Y184.631 E0.0007
G1 X70.894 Y184.166 E0.0007
G1 X70.918 Y183.701 E0.0007
G1 X70.988 Y183.24 E0.0007
G1 X71.104 Y182.789 E0.0007
G1 X71.266 Y182.35 E0.0007
G1 X71.412 Y182.041 E0.0005
G1 X71.716 Y181.536 E0.0009
G1 X71.998 Y181.169 E0.0007
G1 X72.317 Y180.83 E0.0007
G1 X72.669 Y180.525 E0.0007
G1 X73.05 Y180.257 E0.0007
G1 X73.456 Y180.029 E0.0007
G1 X73.883 Y179.842 E0.0007
; feature outer perimeter
G1 X73.793 Y179.606 F12000
G1 X74.261 Y179.456 E0.0007 F300
G1 X74.741 Y179.354 E0.0007
G1 X75.229 Y179.3 E0.0007
G1 X75.72 Y179.296 E0.0007
G1 X76.21 Y179.342 E0.0007
G1 X76.531 Y179.399 E0.0005
G1 X77.006 Y179.525 E0.0007
G1 X77.466 Y179.699 E0.0007
G1 X77.905 Y179.918 E0.0007
G1 X78.321 Y180.18 E0.0007
G1 X78.708 Y180.482 E0.0007
G1 X79.062 Y180.822 E0.0007
G1 X79.38 Y181.196 E0.0007
G1 X79.66 Y181.6 E0.0007
G1 X79.897 Y182.031 E0.0007
G1 X80.03 Y182.328 E0.0005
G1 X80.192 Y182.793 E0.0007
G1 X80.307 Y183.27 E0.0007
G1 X80.373 Y183.758 E0.0007
G1 X80.389 Y184.083 E0.0005
G1 X80.372 Y184.575 E0.0007
G1 X80.307 Y185.061 E0.0007
G1 X80.192 Y185.539 E0.0007
G1 X80.03 Y186.002 E0.0007
G1 X79.823 Y186.447 E0.0007
G1 X79.571 Y186.869 E0.0007
G1 X79.278 Y187.264 E0.0007
G1 X78.947 Y187.627 E0.0007
G1 X78.708 Y187.849 E0.0005
G1 X78.321 Y188.152 E0.0007
G1 X77.905 Y188.414 E0.0007
G1 X77.466 Y188.633 E0.0007
G1 X77.006 Y188.806 E0.0007
G1 X76.532 Y188.933 E0.0007
G1 X76.047 Y189.011 E0.0007
G1 X75.557 Y189.039 E0.0007
G1 X75.066 Y189.019 E0.0007
G1 X74.58 Y188.949 E0.0007
G1 X74.103 Y188.83 E0.0007
G1 X73.641 Y188.665 E0.0007
G1 X73.198 Y188.453 E0.0007
G1 X72.778 Y188.198 E0.0007
G1 X72.386 Y187.902 E0.0007
G1 X72.026 Y187.568 E0.0007
G1 X71.702 Y187.2 E0.0007
G1 X71.416 Y186.801 E0.0007
G1 X71.171 Y186.375 E0.0007
G1 X70.971 Y185.925 E0.0007
G1 X70.863 Y185.618 E0.0005
G1 X70.741 Y185.142 E0.0007
G1 X70.667 Y184.656 E0.0007
G1 X70.642 Y184.166 E0.0007
G1 X70.667 Y183.675 E0.0007
G1 X70.741 Y183.19 E0.0007
G1 X70.863 Y182.714 E0.0007
G1 X71.033 Y182.253 E0.0007
G1 X71.19 Y181.922 E0.0006
G1 X71.507 Y181.394 E0.0009
G1 X71.806 Y181.005 E0.0007
G1 X72.143 Y180.648 E0.0007
G1 X72.514 Y180.326 E0.0007
G1 X72.915 Y180.044 E0.0007
G1 X73.343 Y179.803 E0.0007
G1 X73.793 Y179.606 E0.0007
; feature solid layer
G1 X77.631 Y180.579 F12000
G1 X79.102 Y182.05 E0.0031 F480
G1 X79.265 Y182.346 E0.0005
G1 X79.374 Y182.589 E0.0004
G1 X79.422 Y182.726 E0.0002
G1 X76.956 Y180.261 E0.0053
G1 X76.79 Y180.198 E0.0003
G1 X76.445 Y180.106 E0.0005
G1 X79.572 Y183.233 E0.0067
G1 X79.612 Y183.4 E0.0003
G1 X79.648 Y183.665 E0.0004
G1 X76.015 Y180.032 E0.0078
G1 X75.691 Y180.002 E0.0005
G1 X75.629 Y180.003 E0.0001
G1 X79.681 Y184.055 E0.0087
G1 X79.683 Y184.089 E0.0001
G1 X79.672 Y184.402 E0.0005
G1 X75.271 Y180.006 E0.0094
G1 X74.954 Y180.04 E0.0005
G1 X79.64 Y184.726 E0.0100
G1 X79.612 Y184.931 E0.0003
G1 X79.588 Y185.031 E0.0002
G1 X74.652 Y180.094 E0.0105
G1 X74.443 Y180.139 E0.0003
G1 X74.365 Y180.164 E0.0001
G1 X79.519 Y185.319 E0.0110
G1 X79.514 Y185.34 E0.0000
G1 X79.429 Y185.585 E0.0004
G1 X74.095 Y180.251 E0.0114
G1 X74.043 Y180.267 E0.0001
G1 X73.843 Y180.355 E0.0003
G1 X79.328 Y185.84 E0.0117
G1 X79.214 Y186.083 E0.0004
G1 X73.6 Y180.468 E0.0120
G1 X73.372 Y180.596 E0.0004
G1 X79.084 Y186.309 E0.0122
G1 X78.983 Y186.477 E0.0003
G1 X78.946 Y186.527 E0.0001
G1 X73.156 Y180.737 E0.0124
G1 X72.947 Y180.884 E0.0004
G1 X78.794 Y186.732 E0.0125
G1 X78.733 Y186.815 E0.0002
G1 X78.632 Y186.926 E0.0002
G1 X72.756 Y181.05 E0.0125
G1 X72.632 Y181.158 E0.0002
G1 X72.571 Y181.222 E0.0001
G1 X78.462 Y187.112 E0.0126
G1 X78.445 Y187.13 E0.0000
G1 X78.278 Y187.285 E0.0003
G1 X72.398 Y181.405 E0.0126
G1 X72.344 Y181.463 E0.0001
G1 X72.238 Y181.601 E0.0003
G1 X78.081 Y187.444 E0.0125
G1 X77.914 Y187.574 E0.0003
G1 X77.877 Y187.597 E0.0001
G1 X72.084 Y181.803 E0.0124
G1 X71.95 Y182.026 E0.0004
G1 X77.659 Y187.735 E0.0122
G1 X77.559 Y187.798 E0.0002
G1 X77.43 Y187.862 E0.0002
G1 X71.817 Y182.249 E0.0120
G1 X71.813 Y182.256 E0.0000
G1 X71.701 Y182.49 E0.0004
G1 X77.192 Y187.981 E0.0117
G1 X77.183 Y187.985 E0.0000
G1 X76.934 Y188.079 E0.0004
G1 X71.603 Y182.748 E0.0114
G1 X71.538 Y182.925 E0.0003
G1 X71.514 Y183.016 E0.0001
G1 X76.665 Y188.167 E0.0110
G1 X76.384 Y188.242 E0.0004
G1 X71.441 Y183.299 E0.0106
G1 X71.433 Y183.331 E0.0001
G1 X71.391 Y183.605 E0.0004
G1 X76.077 Y188.291 E0.0100
G1 X75.97 Y188.308 E0.0002
G1 X75.751 Y188.321 E0.0003
G1 X71.36 Y183.931 E0.0094
G1 X71.348 Y184.166 E0.0004
G1 X71.354 Y184.281 E0.0002
G1 X75.4 Y188.327 E0.0086
G1 X75.131 Y188.315 E0.0004
G1 X75.015 Y188.299 E0.0002
G1 X71.382 Y184.665 E0.0078
G1 X71.433 Y185.0 E0.0005
G1 X71.458 Y185.098 E0.0002
G1 X74.583 Y188.223 E0.0067
G1 X74.308 Y188.154 E0.0004
G1 X74.074 Y188.07 E0.0004
G1 X71.605 Y185.601 E0.0053
G1 X71.627 Y185.665 E0.0001
G1 X71.801 Y186.055 E0.0006
G1 X71.934 Y186.287 E0.0004
G1 X73.395 Y187.747 E0.0031
; layer 2, Z = 0.200
; feature inner perimeter
G1 Z0.200 F1002
G1 X73.438 Y188.009 F12000
G1 X73.062 Y187.781 E0.0007 F450
G1 X72.711 Y187.515 E0.0007
G1 X72.388 Y187.216 E0.0007
G1 X72.097 Y186.886 E0.0007
G1 X71.84 Y186.528 E0.0007
G1 X71.621 Y186.146 E0.0007
G1 X71.439 Y185.739 E0.0007
G1 X71.346 Y185.472 E0.0004
G1 X71.235 Y185.041 E0.0007
G1 X71.169 Y184.606 E0.0007
G1 X71.147 Y184.166 E0.0007
G1 X71.169 Y183.726 E0.0007
G1 X71.235 Y183.291 E0.0007
G1 X71.345 Y182.865 E0.0007
G1 X71.497 Y182.451 E0.0007
G1 X71.671 Y182.091 E0.0006
G1 X71.923 Y181.68 E0.0007
G1 X72.19 Y181.332 E0.0007
G1 X72.492 Y181.012 E0.0007
G1 X72.824 Y180.724 E0.0007
G1 X73.185 Y180.47 E0.0007
G1 X73.568 Y180.255 E0.0007
G1 X73.972 Y180.078 E0.0007
G1 X74.391 Y179.944 E0.0007
G1 X74.821 Y179.852 E0.0007
G1 X75.259 Y179.804 E0.0007
G1 X75.699 Y179.8 E0.0007
G1 X76.143 Y179.842 E0.0007
G1 X76.422 Y179.891 E0.0004
G1 X76.852 Y180.006 E0.0007
G1 X77.264 Y180.161 E0.0007
G1 X77.658 Y180.358 E0.0007
G1 X78.03 Y180.593 E0.0007
G1 X78.377 Y180.864 E0.0007
G1 X78.695 Y181.168 E0.0007
G1 X78.98 Y181.503 E0.0007
G1 X79.231 Y181.866 E0.0007
G1 X79.446 Y182.256 E0.0007
G1 X79.561 Y182.514 E0.0004
G1 X79.708 Y182.935 E0.0007
G1 X79.811 Y183.363 E0.0007
G1 X79.87 Y183.804 E0.0007
G1 X79.885 Y184.087 E0.0004
G1 X79.87 Y184.532 E0.0007
G1 X79.811 Y184.969 E0.0007
G1 X79.708 Y185.397 E0.0007
G1 X79.563 Y185.812 E0.0007
G1 X79.377 Y186.211 E0.0007
G1 X79.151 Y186.589 E0.0007
G1 X78.889 Y186.943 E0.0007
G1 X78.589 Y187.272 E0.0007
G1 X78.381 Y187.465 E0.0004
G1 X78.03 Y187.739 E0.0007
G1 X77.658 Y187.974 E0.0007
G1 X77.264 Y188.17 E0.0007
G1 X76.852 Y188.326 E0.0007
G1 X76.427 Y188.439 E0.0007
G1 X75.992 Y188.509 E0.0007
G1 X75.553 Y188.535 E0.0007
G1 X75.113 Y188.516 E0.0007
G1 X74.677 Y188.454 E0.0007
G1 X74.25 Y188.348 E0.0007
G1 X73.835 Y188.199 E0.0007
G1 X73.438 Y188.009 E0.0007
G1 X73.318 Y188.231 F12000
G1 X72.92 Y187.989 E0.0007 F450
G1 X72.549 Y187.709 E0.0007
G1 X72.207 Y187.392 E0.0007
G1 X71.899 Y187.043 E0.0007
G1 X71.628 Y186.664 E0.0007
G1 X71.396 Y186.26 E0.0007
G1 X71.205 Y185.832 E0.0007
G1 X71.105 Y185.545 E0.0005
G1 X70.988 Y185.091 E0.0007
G1 X70.918 Y184.631 E0.0007
G1 X70.894 Y184.166 E0.0007
G1 X70.918 Y183.701 E0.0007
